src/icons/phone.svg

<?xml version="1.0" encoding="UTF-8"?>
<svg width="16px" height="16px" viewBox="0 0 16 16" version="1.1" xmlns="http://www.w3.org/2000/svg" xmlns:xlink="http://www.w3.org/1999/xlink">
    <title>p</title>
    <g id="Homepage-R3--✔" stroke="none" stroke-width="1" fill="" fill-rule="evenodd">
        <path d="M2.04091568,15.9862282 C9.29872818,15.0721657 15.0721657,9.31435318 15.9862282,2.04091568 C16.0018532,1.98622818 16.0018532,1.94716568 16.0018532,1.90810318 C16.0018532,1.86904068 15.9862282,1.81435318 15.9627907,1.78310318 C15.9471657,1.70497818 15.8690407,1.63466568 15.7987282,1.59560318 L11.8377907,0.0174781843 C11.6659157,-0.0372093157 11.4862282,0.0409156843 11.4081032,0.189353184 L9.22060318,4.55654068 C9.15029068,4.68935318 9.18935318,4.83779068 9.28310318,4.94716568 L11.4081032,7.07216568 C10.3143532,8.83779068 8.83779068,10.3377907 7.07216568,11.4315407 L4.94716568,9.28310318 C4.83779068,9.18935318 4.68935318,9.15029068 4.55654068,9.22060318 L0.189353184,11.4081032 C0.0409156843,11.4862282 -0.0372093157,11.6659157 0.0174781843,11.8377907 L1.59560318,15.7987282 C1.63466568,15.8690407 1.68935318,15.9471657 1.78310318,15.9862282 C1.80393652,15.9966449 1.83518652,16.0001171 1.86527911,16.0012745 L1.90810318,16.0018532 C1.94716568,16.0018532 1.98622818,16.0018532 2.04091568,15.9862282 Z" id="p" fill="" fill-rule="nonzero"></path>
    </g>
</svg>

<svg viewBox="0 0 16 16" xmlns="http://www.w3.org/2000/svg">
    <path d="M2.04 15.984C9.296 15.07 15.07 9.313 15.983 2.04 16 1.984 16 1.945 16 1.906a.236.236 0 00-.04-.125c-.015-.078-.093-.148-.163-.187L11.836.016a.361.361 0 00-.43.171L9.22 4.556c-.07.133-.031.28.062.39l2.125 2.125a13.44 13.44 0 01-4.336 4.36L4.945 9.28c-.11-.094-.258-.133-.39-.062L.188 11.406a.361.361 0 00-.172.43l1.578 3.96c.039.071.093.15.187.188.021.01.052.014.082.015l.043.001c.04 0 .078 0 .133-.016z" fill="currentColor"/>
</svg>
